build/system/PersonRefreshOutline.svg

<svg xmlns="http://www.w3.org/2000/svg" fill="none" viewBox="0 0 24 24" focusable="false"><path d="M0 0H24V24H0z"/><path fill="#74767B" fill-rule="evenodd" d="M11.9995 3C9.33448 3 7.26317 5.32002 7.56408 7.96802L7.82612 10.274C8.06732 12.3966 9.86328 14 11.9995 14C14.1358 14 15.9317 12.3966 16.1729 10.274L16.435 7.96803C16.7359 5.32002 14.6646 3 11.9995 3ZM14.8813 10.1272L15.1433 7.82124C15.3566 5.94439 13.8885 4.3 11.9995 4.3C10.1106 4.3 8.64248 5.94439 8.85576 7.82124L9.1178 10.1272C9.28435 11.5928 10.5245 12.7 11.9995 12.7C13.4746 12.7 14.7147 11.5928 14.8813 10.1272ZM10.1459 15C7.3337 15 4.89882 16.9532 4.28877 19.6984L4.18883 20.1481C4.09168 20.5853 4.42434 21 4.87216 21L12.6566 21C13.0156 21 13.3066 20.709 13.3066 20.35C13.3066 19.991 13.0156 19.7 12.6566 19.7L5.62917 19.7C6.20425 17.6982 8.04002 16.3 10.1459 16.3L12.6566 16.3C13.0156 16.3 13.3066 16.009 13.3066 15.65C13.3066 15.291 13.0156 15 12.6566 15L10.1459 15ZM14.2917 18.3432C14.5566 20.2124 16.1633 21.65 18.1057 21.65C20.2333 21.65 21.9581 19.9252 21.9581 17.7976C21.9581 15.67 20.2334 13.9452 18.1057 13.9452C17.6642 13.9452 17.2388 14.0197 16.8421 14.1574C16.5029 14.2751 16.3234 14.6455 16.4411 14.9846C16.5589 15.3238 16.9292 15.5033 17.2683 15.3855C17.5298 15.2948 17.8113 15.2452 18.1057 15.2452C19.5154 15.2452 20.6581 16.3879 20.6581 17.7976C20.6581 19.2073 19.5154 20.35 18.1057 20.35C16.8491 20.35 15.8046 19.4419 15.5926 18.2462L16.0933 18.738C16.3494 18.9896 16.761 18.9859 17.0125 18.7298C17.2641 18.4737 17.2604 18.0622 17.0043 17.8106L15.4262 16.2605C15.1701 16.009 14.7585 16.0127 14.507 16.2688L12.9569 17.8469C12.7054 18.103 12.709 18.5145 12.9651 18.7661C13.2213 19.0176 13.6328 19.0139 13.8844 18.7578L14.2917 18.3432Z"/></svg>

<svg xmlns="http://www.w3.org/2000/svg" fill="none" viewBox="0 0 24 24" focusable="false"><path fill="#74767B" fill-rule="evenodd" d="M11.99 3a4.46 4.46 0 0 0-4.43 4.96l.26 2.31A4.206 4.206 0 0 0 11.99 14c2.14 0 3.94-1.61 4.18-3.73l.26-2.31C16.73 5.32 14.66 3 11.99 3m2.89 7.12.26-2.3a3.176 3.176 0 0 0-3.15-3.53c-1.88 0-3.35 1.65-3.14 3.53l.26 2.3a2.91 2.91 0 0 0 2.88 2.58 2.91 2.91 0 0 0 2.89-2.58M10.14 15c-2.81 0-5.25 1.95-5.86 4.69l-.1.45c-.09.44.24.86.69.86h7.78c.36 0 .65-.3.65-.65 0-.36-.29-.65-.65-.65H5.62a4.71 4.71 0 0 1 4.52-3.41h2.51c.36 0 .65-.29.65-.64 0-.36-.29-.65-.65-.65zm4.15 3.34a3.85 3.85 0 0 0 7.66-.55c0-2.12-1.72-3.85-3.85-3.85-.44 0-.87.07-1.26.21a.65.65 0 0 0-.4.83c.11.34.48.52.82.4.26-.09.55-.14.84-.14 1.41 0 2.55 1.14 2.55 2.55s-1.14 2.56-2.55 2.56c-1.26 0-2.3-.91-2.51-2.11l.5.49c.25.25.67.25.92-.01.25-.25.25-.66-.01-.91l-1.58-1.55a.65.65 0 0 0-.92 0l-1.55 1.58c-.25.26-.25.67.01.92s.67.25.92-.01z"/></svg>
